X: 32860
T: Porter For Three
R: polka
M: 2/4
K: Gmajor
B>c BA|BG EF|G>A Bd|ed B/c/d|B>d BA|BG E>F|GB AF|G2 GA||
B2 BA|BG EF|G>A Bd|ed B/c/d|B>d BA|BG E>F|GB AF|G2 G>A||
BG Bc|ed d>g|ed Bd|ed BA|BG Bc|ed d>g|ed BA|G2 G2||
BG Bc|ed d2|g>f ed|ed BA|BG Bc|ed d>g|ed BA|G2 G>A||
BG G>B|AG ED|BG B/c/d|ed d>c|BG G>B|AG ED|B/c/d cA|G2 G>A||

